X: 14766
T: Gan Ainm
R: hornpipe
M: 4/4
K: Dmajor
|:(3ABc|dcdA defg|agab a2 f2|gfeg fedf|edcB A2 fe|
dAFA defg|agab a2 f2|gfeg fedf|1 edce d2:|2 edce d4||
|:agab a2 A2|agab a2 A2|f2 fe fagf|edcB A2 fe|
dAFA defg|agab a2f2|(3gag eg (3fgf df|edce d4:|

